X: 10842
T: COTILLION No. 8. tune 4
C:
%R: jig
B: Elias Howe "The Musician's Companion" Part 1 1842 p.84 #2
S: http://imslp.org/wiki/The_Musician's_Companion_(Howe,_Elias)
Z: 2015 John Chambers <jc:trillian.mit.edu>
N: The written rhythms aren't quite right at the strain boundaries; not fixed.
M: 6/8
L: 1/8
K: G
% - - - - - - - - - - - - - - - - - - - - - - - - -
D |\
G2G BAB | G2G BAB | GBd dcB | ABG FED |\
G2G BAB | G2G BAB | GBd dcB | cAF G2 H|]
BAG AFD | ABc B2B/c/ | d2g dcB | ABG FED |\
d2d fef | d2d fef | dfa agf | efd ^cBA |\
d2d fef | d2d fef |]
dfa agf | ge^c d3 | def g2g | gfe d3 |\
Bcd e2e | edc B3 | BAB c2c | cBc d2d |\
dcd edc | BAG "^D.C."d2 |]
% - - - - - - - - - - Dance description - - - - - - - - - -
%%begintext align
%% First 2 forward and back,
%% all chassa across partners,
%% same 2 back to back,
%% partners same,
%% first 4 pay their address,
%% balance 4,
%% turn partners,
%% others the same, &c.
%%endtext
%- - - - - - - - - - - - - - - - - - - - - - - - -
%%sep 1 1 300
